school/img/country/QA.svg

<svg width="13" height="12" viewBox="0 0 13 12" fill="none" xmlns="http://www.w3.org/2000/svg">
<rect x="0.25" y="0.25" width="12.5" height="11.5" rx="1.75" fill="white" stroke="#F5F5F5" stroke-width="0.5"/>
<mask id="mask0" mask-type="alpha" maskUnits="userSpaceOnUse" x="0" y="0" width="13" height="12">
<rect x="0.25" y="0.25" width="12.5" height="11.5" rx="1.75" fill="white" stroke="white" stroke-width="0.5"/>
</mask>
<g mask="url(#mask0)">
<path fill-rule="evenodd" clip-rule="evenodd" d="M12.9999 0H3.71423L4.6428 0.8L3.71423 1.6L4.6428 2.4L3.71423 3.2L4.6428 4L3.71423 4.8L4.6428 5.6L3.71423 6.4L4.6428 7.2L3.71423 8L4.6428 8.8L3.71423 9.6L4.6428 10.4L3.71423 11.2L4.6428 12H12.9999V0Z" fill="#A6264C"/>
</g>
</svg>

<svg width="13" height="12" fill="none" xmlns="http://www.w3.org/2000/svg"><rect x=".25" y=".25" width="12.5" height="11.5" rx="1.75" fill="#fff" stroke="#F5F5F5" stroke-width=".5"/><mask id="a" maskUnits="userSpaceOnUse" x="0" y="0" width="13" height="12"><rect x=".25" y=".25" width="12.5" height="11.5" rx="1.75" fill="#fff" stroke="#fff" stroke-width=".5"/></mask><g mask="url(#a)"><path fill-rule="evenodd" clip-rule="evenodd" d="M13 0H3.714l.929.8-.929.8.929.8-.929.8.929.8-.929.8.929.8-.929.8.929.8-.929.8.929.8-.929.8.929.8-.929.8.929.8H13V0z" fill="#A6264C"/></g></svg>
